X: 571
T: Sari Zeybek
B: incoming
M:9/8
Q: 3/8=100
K:Dm
V:1 
|:D3AAGF2E|F2G2AGFED|E2FED2D3:|
|:D3FEDC2^B,|C2D2EGFED|E2FED2D3:|
% abcbook-tune_id 63cb11276b9a26f13defe963
% abcbook-tune_composer_id 
% abcbook-boost 0
% abcbook-difficulty 0
% abcbook-tags balkan dances
% abcbook-tablature 
% abcbook-transpose 
% abcbook-tuning 
% abcbook-lastupdated 1674252583330
% abcbook-soundfonts 
% abcbook-repeats 1


